;FLAVOR:Marlin
;TIME:8262
;Filament used: 5.57251m
;Layer height: 0.2
;MINX:69
;MINY:54.013
;MINZ:0.3
;MAXX:151
;MAXY:165.885
;MAXZ:19.9
;Generated with Cura_SteamEngine 5.3.1
M82 ;absolute extrusion mode
; Ender 3 Custom Start G-code
M104 S160	; Set extruder tempterture
M140 S50	; Set bed temperature
M117 Homing Axes  ; TEST print function
G28 ; Home all axes
G1 Z5.0 F3000 ; Move Z Axis up little to prevent scratching of Heat Bed
G1 X0.1 Y10 Z5 F5000.0 ; Move near and above start position
M109 S160	; wait for extruder to preheat
M190 S50	; wait for bed to preheat
M104 S210.0 ; Set Extruder temperature
M140 S60 ; Set Heat Bed temperature
M190 S60 ; Wait for Heat Bed temperature
M109 S210.0 ; Wait for Extruder temperature
G1 X0.1 Y20 Z0.3 F5000.0 ; Move to start position
G1 X0.1 Y70.0 Z0.3 F1500.0 E15 ; Draw the first line
G1 X0.4 Y70.0 Z0.3 F5000.0 ; Move to side a little
G1 X0.4 Y20 Z0.3 F1500.0 E30 ; Draw the second line
G92 E0 ; Reset Extruder
G1 Z2.0 F3000 ; Move Z Axis up little to prevent scratching of Heat Bed
G1 X5 Y20 Z0.3 F5000.0 ; Move over to prevent blob squish
G92 E0
G92 E0
G1 F2700 E-5
;LAYER_COUNT:100
;LAYER:0
M107
G0 F6000 X72.366 Y58.269 Z0.3
;TYPE:SKIRT
G1 F2700 E0
G1 F1200 X72.993 Y57.619 E0.04506
G1 X73.675 Y57.027 E0.09011
G1 X74.407 Y56.498 E0.13517
G1 X75.183 Y56.036 E0.18023
G1 X75.997 Y55.645 E0.22528
G1 X76.842 Y55.326 E0.27034
G1 X77.712 Y55.084 E0.31539
G1 X78.6 Y54.92 E0.36045
G1 X79.723 Y54.826 E0.41667
G1 X80.33 Y54.813 E0.44696
G1 X139.439 Y54.814 E3.39592
G1 X140.137 Y54.824 E3.43075
G1 X141.039 Y54.877 E3.47582
G1 X141.932 Y55.009 E3.52086
G1 X142.81 Y55.22 E3.56591
G1 X143.666 Y55.508 E3.61097
G1 X144.493 Y55.87 E3.65601
G1 X145.285 Y56.305 E3.70109
G1 X146.036 Y56.807 E3.74616
G1 X146.739 Y57.374 E3.79121
G1 X147.389 Y58.001 E3.83627
G1 X147.981 Y58.683 E3.88133
G1 X148.511 Y59.414 E3.92637
G1 X148.973 Y60.19 E3.97143
G1 X149.366 Y61.003 E4.01648
G1 X149.684 Y61.848 E4.06153
G1 X149.927 Y62.718 E4.10659
G1 X150.092 Y63.606 E4.15165
G1 X150.187 Y64.736 E4.20823
G1 X150.2 Y65.343 E4.23852
G1 X150.199 Y124.481 E7.18892
G1 X150.19 Y125.085 E7.21906
G1 X150.163 Y125.688 E7.24917
G1 X150.074 Y126.861 E7.30786
G1 X149.71 Y130.776 E7.50403
G1 X149.619 Y131.624 E7.54658
G1 X149.482 Y132.517 E7.59165
G1 X149.373 Y133.002 E7.61645
G1 X149.199 Y133.675 E7.65113
G1 X147.946 Y138.072 E7.87923
G1 X147.737 Y138.771 E7.91563
G1 X147.44 Y139.624 E7.96069
G1 X147.225 Y140.123 E7.9878
G1 X146.964 Y140.679 E8.01844
G1 X144.955 Y144.716 E8.24341
G1 X144.568 Y145.469 E8.28565
G1 X144.12 Y146.252 E8.33066
G1 X143.794 Y146.736 E8.35977
G1 X143.419 Y147.254 E8.39167
G1 X140.642 Y150.93 E8.62152
G1 X140.217 Y151.477 E8.65608
G1 X139.631 Y152.165 E8.70117
G1 X139.217 Y152.586 E8.73062
G1 X138.957 Y152.835 E8.74858
G1 X135.329 Y156.146 E8.99363
G1 X134.813 Y156.601 E9.02795
G1 X134.11 Y157.167 E9.07298
G1 X133.673 Y157.471 E9.09954
G1 X133.132 Y157.823 E9.13174
G1 X129.237 Y160.233 E9.36025
G1 X128.61 Y160.609 E9.39673
G1 X127.815 Y161.038 E9.4418
G1 X127.3 Y161.271 E9.47
G1 X126.701 Y161.518 E9.50232
G1 X122.531 Y163.134 E9.72544
G1 X121.732 Y163.429 E9.76793
G1 X120.872 Y163.704 E9.81298
G1 X120.349 Y163.83 E9.83982
G1 X119.688 Y163.969 E9.87352
G1 X115.227 Y164.801 E10.09991
G1 X114.526 Y164.923 E10.13541
G1 X113.63 Y165.038 E10.18048
G1 X113.097 Y165.069 E10.20712
G1 X112.427 Y165.085 E10.24055
G1 X107.781 Y165.084 E10.47234
G1 X107.071 Y165.073 E10.50777
G1 X106.169 Y165.019 E10.55285
G1 X105.652 Y164.951 E10.57887
G1 X105.064 Y164.855 E10.60859
G1 X100.471 Y163.997 E10.8417
G1 X99.751 Y163.851 E10.87835
G1 X98.875 Y163.632 E10.9234
G1 X98.375 Y163.469 E10.94964
G1 X97.801 Y163.262 E10.98008
G1 X93.608 Y161.637 E11.20443
G1 X92.774 Y161.299 E11.24932
G1 X91.953 Y160.922 E11.2944
G1 X91.492 Y160.67 E11.32061
G1 X91.019 Y160.391 E11.34801
G1 X87.145 Y157.994 E11.57529
G1 X86.406 Y157.521 E11.61906
G1 X85.669 Y157 E11.66409
G1 X85.256 Y156.663 E11.69068
G1 X84.792 Y156.257 E11.72144
G1 X81.358 Y153.126 E11.95329
G1 X80.846 Y152.644 E11.98837
G1 X80.217 Y151.996 E12.03342
G1 X79.887 Y151.607 E12.05887
G1 X79.478 Y151.09 E12.09176
G1 X76.662 Y147.36 E12.32493
G1 X76.272 Y146.827 E12.35788
G1 X75.772 Y146.075 E12.40293
G1 X75.498 Y145.592 E12.43064
G1 X75.18 Y144.986 E12.46478
G1 X73.16 Y140.927 E12.69098
G1 X72.845 Y140.273 E12.72719
G1 X72.49 Y139.443 E12.77223
G1 X72.303 Y138.901 E12.80083
G1 X72.118 Y138.298 E12.8323
G1 X70.847 Y133.828 E13.06415
G1 X70.668 Y133.158 E13.09875
G1 X70.473 Y132.276 E13.14381
G1 X70.398 Y131.769 E13.16938
G1 X70.323 Y131.118 E13.20208
G1 X69.896 Y126.514 E13.43276
G1 X69.848 Y125.893 E13.46383
G1 X69.82 Y125.294 E13.49375
G1 X69.8 Y124.124 E13.55213
G1 X69.801 Y65.534 E16.4752
G1 X69.811 Y64.869 E16.50838
G1 X69.865 Y63.967 E16.55346
G1 X69.998 Y63.074 E16.5985
G1 X70.209 Y62.196 E16.64355
G1 X70.498 Y61.34 E16.68863
G1 X70.861 Y60.513 E16.73369
G1 X71.295 Y59.722 E16.7787
G1 X71.798 Y58.971 E16.82379
G1 X72.366 Y58.269 E16.86885
G0 F6000 X72.078 Y57.991
G1 F1200 X72.705 Y57.341 E16.9139
G1 X73.413 Y56.725 E16.96072
G1 X74.202 Y56.154 E17.00931
G1 X74.978 Y55.692 E17.05437
G1 X75.824 Y55.284 E17.10123
G1 X76.735 Y54.941 E17.14979
G1 X77.639 Y54.691 E17.19659
G1 X78.567 Y54.521 E17.24366
G1 X79.714 Y54.426 E17.30108
G1 X80.33 Y54.413 E17.33181
G1 X139.445 Y54.414 E20.28107
G1 X140.16 Y54.425 E20.31675
G1 X141.097 Y54.481 E20.36358
G1 X141.99 Y54.613 E20.40862
G1 X142.938 Y54.841 E20.45726
G1 X143.794 Y55.129 E20.50232
G1 X144.686 Y55.519 E20.55089
G1 X145.478 Y55.954 E20.59597
G1 X146.258 Y56.474 E20.64274
G1 X147.017 Y57.086 E20.69138
G1 X147.667 Y57.713 E20.73644
G1 X148.305 Y58.448 E20.785
G1 X148.855 Y59.209 E20.83184
G1 X149.317 Y59.985 E20.8769
G1 X149.74 Y60.862 E20.92547
G1 X150.069 Y61.74 E20.97225
G1 X150.32 Y62.645 E21.01911
G1 X150.491 Y63.572 E21.06613
G1 X150.586 Y64.702 E21.12271
G1 X150.6 Y65.343 E21.1547
G1 X150.599 Y124.487 E24.1054
G1 X150.59 Y125.103 E24.13614
G1 X150.562 Y125.718 E24.16685
G1 X150.472 Y126.898 E24.22589
G1 X150.108 Y130.819 E24.42235
G1 X150.017 Y131.667 E24.4649
G1 X149.872 Y132.605 E24.51226
G1 X149.76 Y133.102 E24.53767
G1 X149.584 Y133.785 E24.57286
G1 X148.329 Y138.187 E24.80123
G1 X148.115 Y138.903 E24.83851
G1 X147.818 Y139.756 E24.88358
G1 X147.587 Y140.293 E24.91274
G1 X147.322 Y140.857 E24.94383
G1 X145.311 Y144.899 E25.16907
G1 X144.915 Y145.668 E25.21222
G1 X144.467 Y146.451 E25.25723
G1 X144.118 Y146.971 E25.28847
G1 X143.738 Y147.495 E25.32076
G1 X140.958 Y151.175 E25.55086
G1 X140.522 Y151.736 E25.5863
G1 X139.936 Y152.424 E25.63139
G1 X139.494 Y152.875 E25.6629
G1 X139.227 Y153.13 E25.68132
G1 X135.594 Y156.446 E25.92672
G1 X135.064 Y156.913 E25.96196
G1 X134.361 Y157.479 E26.00699
G1 X133.891 Y157.806 E26.03555
G1 X133.342 Y158.163 E26.06822
G1 X129.443 Y160.576 E26.29698
G1 X128.8 Y160.961 E26.33437
G1 X128.005 Y161.39 E26.37944
G1 X127.452 Y161.641 E26.40974
G1 X126.846 Y161.891 E26.44245
G1 X122.67 Y163.509 E26.66588
G1 X121.854 Y163.81 E26.70927
G1 X120.966 Y164.093 E26.75577
G1 X120.431 Y164.221 E26.78321
G1 X119.761 Y164.362 E26.81737
G1 X115.296 Y165.195 E27.04397
G1 X114.577 Y165.32 E27.08038
G1 X113.681 Y165.435 E27.12545
G1 X113.107 Y165.469 E27.15414
G1 X112.437 Y165.485 E27.18758
G1 X107.775 Y165.484 E27.42016
G1 X107.047 Y165.472 E27.45649
G1 X106.117 Y165.416 E27.50297
G1 X105.588 Y165.346 E27.52959
G1 X104.991 Y165.248 E27.55978
G1 X100.392 Y164.389 E27.79319
G1 X99.654 Y164.239 E27.83076
G1 X98.778 Y164.02 E27.87581
G1 X98.239 Y163.845 E27.90408
G1 X97.656 Y163.635 E27.935
G1 X93.458 Y162.008 E28.15962
G1 X92.607 Y161.663 E28.20543
G1 X91.786 Y161.286 E28.2505
G1 X91.289 Y161.015 E28.27874
G1 X90.809 Y160.731 E28.30657
G1 X86.929 Y158.331 E28.53418
G1 X86.175 Y157.848 E28.57885
G1 X85.438 Y157.327 E28.62388
G1 X84.993 Y156.964 E28.65253
G1 X84.522 Y156.553 E28.68372
G1 X81.084 Y153.417 E28.91588
G1 X80.559 Y152.923 E28.95184
G1 X79.912 Y152.255 E28.99824
G1 X79.573 Y151.855 E29.0244
G1 X79.159 Y151.331 E29.05772
G1 X76.339 Y147.596 E29.2912
G1 X75.939 Y147.048 E29.32505
G1 X75.424 Y146.272 E29.37152
G1 X75.144 Y145.778 E29.39985
G1 X74.822 Y145.164 E29.43444
G1 X72.8 Y141.101 E29.66085
G1 X72.477 Y140.43 E29.69801
G1 X72.122 Y139.6 E29.74305
G1 X71.921 Y139.018 E29.77376
G1 X71.733 Y138.407 E29.80566
G1 X70.461 Y133.931 E30.03781
G1 X70.277 Y133.244 E30.07329
G1 X70.077 Y132.335 E30.11973
G1 X70.001 Y131.815 E30.14594
G1 X69.925 Y131.155 E30.17909
G1 X69.497 Y126.545 E30.41007
G1 X69.448 Y125.912 E30.44175
G1 X69.42 Y125.301 E30.47226
G1 X69.4 Y124.124 E30.53099
G1 X69.401 Y65.528 E33.45436
G1 X69.412 Y64.845 E33.48844
G1 X69.469 Y63.908 E33.53527
G1 X69.602 Y63.015 E33.58031
G1 X69.83 Y62.068 E33.62891
G1 X70.119 Y61.212 E33.67398
G1 X70.51 Y60.321 E33.72253
G1 X70.944 Y59.53 E33.76754
G1 X71.487 Y58.719 E33.81623
G1 X72.078 Y57.991 E33.86302
G0 F6000 X71.176 Y58.467
G1 F1200 X71.79 Y57.713 E33.91153
G1 X72.442 Y57.039 E33.95831
G1 X73.15 Y56.423 E34.00513
G1 X73.997 Y55.81 E34.0573
G1 X74.773 Y55.348 E34.10235
G1 X75.683 Y54.91 E34.15274
G1 X76.628 Y54.555 E34.2031
G1 X77.532 Y54.305 E34.24989
G1 X78.534 Y54.122 E34.30071
G1 X79.681 Y54.027 E34.35813
G1 X80.33 Y54.013 E34.39052
G1 X139.451 Y54.014 E37.34008
G1 X140.184 Y54.026 E37.37665
G1 X141.155 Y54.085 E37.42518
G1 X142.084 Y54.224 E37.47205
G1 X143.032 Y54.452 E37.52069
G1 X143.954 Y54.762 E37.56922
G1 X144.879 Y55.168 E37.61962
G1 X145.671 Y55.603 E37.6647
G1 X146.48 Y56.141 E37.71317
G1 X147.295 Y56.798 E37.7654
G1 X147.945 Y57.425 E37.81045
G1 X148.607 Y58.186 E37.86078
G1 X149.199 Y59.004 E37.91115
G1 X149.661 Y59.78 E37.95621
G1 X150.115 Y60.722 E38.00838
G1 X150.444 Y61.6 E38.05516
G1 X150.713 Y62.572 E38.10547
G1 X150.89 Y63.538 E38.15447
G1 X150.985 Y64.668 E38.21104
G1 X151 Y65.343 E38.24473
G1 X150.999 Y124.493 E41.19573
G1 X150.99 Y125.121 E41.22707
G1 X150.961 Y125.748 E41.25838
G1 X150.87 Y126.935 E41.31778
G1 X150.506 Y130.862 E41.51453
G1 X150.415 Y131.71 E41.55708
G1 X150.262 Y132.693 E41.60672
G1 X150.147 Y133.202 E41.63275
G1 X149.969 Y133.895 E41.66845
G1 X148.712 Y138.302 E41.89708
G1 X148.493 Y139.035 E41.93525
G1 X148.196 Y139.888 E41.98031
G1 X147.949 Y140.463 E42.01153
G1 X147.68 Y141.035 E42.04307
G1 X145.667 Y145.082 E42.26857
G1 X145.262 Y145.867 E42.31264
G1 X144.814 Y146.65 E42.35765
G1 X144.442 Y147.206 E42.39102
G1 X144.057 Y147.736 E42.4237
G1 X141.274 Y151.42 E42.65405
G1 X140.827 Y151.995 E42.69038
G1 X140.222 Y152.704 E42.73688
G1 X139.77 Y153.164 E42.76906
G1 X139.497 Y153.425 E42.7879
G1 X135.858 Y156.746 E43.03369
G1 X135.315 Y157.225 E43.06981
G1 X134.612 Y157.791 E43.11484
G1 X134.109 Y158.141 E43.14541
G1 X133.552 Y158.503 E43.17856
G1 X129.648 Y160.919 E43.40761
G1 X128.99 Y161.313 E43.44587
G1 X128.195 Y161.742 E43.49094
G1 X127.605 Y162.011 E43.52329
G1 X126.991 Y162.264 E43.55642
G1 X122.808 Y163.884 E43.78022
G1 X121.975 Y164.191 E43.82451
G1 X121.059 Y164.482 E43.87246
G1 X120.513 Y164.612 E43.90046
G1 X119.834 Y164.755 E43.93508
G1 X115.365 Y165.589 E44.16189
G1 X114.628 Y165.717 E44.19921
G1 X113.732 Y165.832 E44.24427
G1 X113.117 Y165.869 E44.27501
G1 X112.447 Y165.885 E44.30845
G1 X107.768 Y165.884 E44.54188
G1 X107.023 Y165.871 E44.57906
G1 X106.065 Y165.813 E44.62694
G1 X105.523 Y165.741 E44.65422
G1 X104.918 Y165.641 E44.68481
G1 X100.312 Y164.781 E44.91858
G1 X99.557 Y164.627 E44.95702
G1 X98.681 Y164.408 E45.00207
G1 X98.103 Y164.221 E45.03238
G1 X97.511 Y164.008 E45.06376
G1 X93.308 Y162.379 E45.28865
G1 X92.44 Y162.027 E45.33538
G1 X91.619 Y161.65 E45.38045
G1 X91.085 Y161.359 E45.41079
G1 X90.599 Y161.071 E45.43898
G1 X86.713 Y158.668 E45.66692
G1 X85.944 Y158.175 E45.7125
G1 X85.207 Y157.654 E45.75753
G1 X84.73 Y157.265 E45.78823
G1 X84.252 Y156.849 E45.81985
G1 X80.81 Y153.708 E46.05232
G1 X80.272 Y153.201 E46.08921
G1 X79.607 Y152.514 E46.13691
G1 X79.259 Y152.103 E46.16377
G1 X78.84 Y151.572 E46.19752
G1 X76.016 Y147.832 E46.43133
G1 X75.606 Y147.269 E46.46607
G1 X75.076 Y146.469 E46.51395
G1 X74.79 Y145.964 E46.54291
G1 X74.464 Y145.342 E46.57794
G1 X72.44 Y141.274 E46.80463
G1 X72.109 Y140.587 E46.84267
G1 X71.744 Y139.731 E46.8891
G1 X71.543 Y139.149 E46.91982
G1 X71.348 Y138.516 E46.95286
G1 X70.075 Y134.034 E47.18531
G1 X69.886 Y133.33 E47.22168
G1 X69.686 Y132.421 E47.26812
G1 X69.604 Y131.861 E47.29635
G1 X69.527 Y131.192 E47.32995
G1 X69.098 Y126.576 E47.56123
G1 X69.048 Y125.93 E47.59356
G1 X69.02 Y125.308 E47.62462
G1 X69 Y124.124 E47.6837
G1 X69.001 Y65.522 E50.60737
G1 X69.013 Y64.821 E50.64235
G1 X69.073 Y63.849 E50.69093
G1 X69.206 Y62.956 E50.73597
G1 X69.441 Y61.974 E50.78635
G1 X69.74 Y61.084 E50.83319
G1 X70.159 Y60.129 E50.88522
G1 X70.593 Y59.338 E50.93023
G1 X71.176 Y58.467 E50.98252
G1 F2700 E45.98252
;MESH:base.STL
G0 F6000 X83.819 Y70.014
G0 X84.172 Y93.841
G0 X103.135 Y93.936
;TYPE:WALL-INNER
G1 F2700 E50.98252
G1 F1200 X102.75 Y94.013 E51.00211
G1 X84.913 Y94.01 E51.892
G1 X84.534 Y93.899 E51.91171
G1 X84.275 Y93.703 E51.92791
G1 X84.132 Y93.511 E51.93985
G1 X84.034 Y93.275 E51.9526
G1 X84 Y93.013 E51.96578
G1 X84 Y70.013 E53.11326
G1 X84.037 Y69.741 E53.12695
G1 X84.141 Y69.499 E53.14009
G1 X84.292 Y69.305 E53.15236
G1 X84.486 Y69.154 E53.16462
G1 X84.729 Y69.05 E53.17781
G1 X85 Y69.013 E53.19146
G1 X102.75 Y69.013 E54.07701
G1 X103.075 Y69.067 E54.09345
G1 X103.351 Y69.212 E54.109
G1 X103.55 Y69.413 E54.12311
G1 X103.674 Y69.628 E54.13549
G1 X103.75 Y69.886 E54.14891
G1 X103.75 Y93.141 E55.30911
G1 X103.658 Y93.437 E55.32457
G1 X103.421 Y93.756 E55.3444
G1 X103.135 Y93.936 E55.36126
G0 F6000 X102.835 Y93.613
G1 F1200 X84.947 Y93.611 E56.25369
G1 X84.72 Y93.545 E56.26549
G1 X84.565 Y93.427 E56.27521
G1 X84.4 Y93.136 E56.2919
G1 X84.4 Y70.013 E57.44551
G1 X84.484 Y69.705 E57.46144
G1 X84.692 Y69.497 E57.47611
G1 X85 Y69.413 E57.49204
G1 X102.75 Y69.413 E58.37759
G1 X102.945 Y69.445 E58.38745
G1 X103.111 Y69.532 E58.3968
G1 X103.23 Y69.653 E58.40527
G1 X103.35 Y69.934 E58.42051
G1 X103.35 Y93.091 E59.57582
G1 X103.295 Y93.268 E59.58506
G1 X103.153 Y93.459 E59.59694
G1 X102.835 Y93.613 E59.61457
G1 F2700 E54.61457
G0 F6000 X102.835 Y93.913
G0 X100.613 Y94.173
G0 X116.09 Y91.03
G0 X116.422 Y93.841
G0 X116.579 Y93.756
G1 F2700 E59.61457
G1 F1200 X116.343 Y93.437 E59.63436
G1 X116.25 Y93.142 E59.64979
G1 X116.25 Y69.886 E60.81004
G1 X116.326 Y69.628 E60.82346
G1 X116.45 Y69.413 E60.83584
G1 X116.65 Y69.212 E60.84999
G1 X116.925 Y69.066 E60.86552
G1 X117.132 Y69.013 E60.87618
G1 X135 Y69.013 E61.76762
G1 X135.272 Y69.05 E61.78132
G1 X135.514 Y69.154 E61.79446
G1 X135.708 Y69.305 E61.80672
G1 X135.859 Y69.499 E61.81899
G1 X135.964 Y69.741 E61.83215
G1 X136 Y70.013 E61.84584
G1 X136 Y93.013 E62.99331
G1 X135.966 Y93.275 E63.00649
G1 X135.868 Y93.511 E63.01924
G1 X135.725 Y93.703 E63.03118
G1 X135.466 Y93.899 E63.04739
G1 X135.254 Y93.981 E63.05873
G1 X135 Y94.013 E63.0715
G1 X117.163 Y94.01 E63.96139
G1 X116.865 Y93.937 E63.9767
G1 X116.579 Y93.756 E63.99359
G0 F6000 X116.847 Y93.459
G1 F1200 X116.706 Y93.267 E64.00547
G1 X116.65 Y93.092 E64.01464
G1 X116.65 Y69.934 E65.16999
G1 X116.77 Y69.653 E65.18524
G1 X116.89 Y69.532 E65.19374
G1 X117.176 Y69.413 E65.20919
G1 X135 Y69.413 E66.09844
G1 X135.308 Y69.497 E66.11436
G1 X135.516 Y69.704 E66.12901
G1 X135.6 Y70.013 E66.14498
G1 X135.6 Y93.136 E67.29859
G1 X135.435 Y93.427 E67.31528
G1 X135.28 Y93.545 E67.325
G1 X135 Y93.613 E67.33938
G1 X117.197 Y93.611 E68.22757
G1 X117.019 Y93.568 E68.23671
G1 X116.847 Y93.459 E68.24687
G1 F2700 E63.24687
G0 F6000 X116.847 Y93.913
G0 X117.147 Y94.19
G0 X117.147 Y96.613
G0 X116.865 Y123.937
G1 F2700 E68.24687
G1 F1200 X116.579 Y123.756 E68.26375
G1 X116.343 Y123.437 E68.28355
G1 X116.25 Y123.142 E68.29898
G1 X116.25 Y97.013 E69.60256
G1 X116.344 Y96.589 E69.62423
G1 X116.579 Y96.27 E69.644
G1 X116.865 Y96.089 E69.66088
G1 X117.163 Y96.016 E69.67619
G1 X135 Y96.013 E70.56608
G1 X135.254 Y96.045 E70.57885
G1 X135.466 Y96.127 E70.59019
G1 X135.725 Y96.323 E70.6064
G1 X135.868 Y96.514 E70.6183
G1 X135.966 Y96.75 E70.63105
G1 X136 Y97.013 E70.64428
